!!!!SEGMENT: pl-kk--kk-i-389--008-001_anonim--missa-no-8-rorate.krn
!!!cenid: 17xx:2506
!!!COM: Anonim
!!!COM-rismID: pe30004985
!!!CDT:
!!!CNT:
!!!OPR: [Missa] No. 8.
!!!OTL: Rorate
!!!OMV: 001
!!!PDT:
!!!AGN: Sacred; Mass
!!!YEC: Copyright 2022 Narodowy Instytut Fryderyka Chopina (https://polishscores.org)
!!!YEM: License CC-BY-4.0 (https://creativecommons.org/licenses/by/4.0)
!!!SMS-siglum: PL-Kk
!!!SMS-shelfmark: Kk.I.389
!!!SMS-variant:
!!!SMS-altvar:
!!!SMS-shelfwork: 008-001 M
!!!NIFC-rismSourceID: 1001146182
!!!NIFC-rismChildID: 1001147247
!!!NIFC-islandoraID: pl-kk:6976
!!!URL-pdf-islandora: https://repozytorium.nifc.pl/islandora/object/pl-kk%3A6976/datastream/PDF/view
!!!URL-scan: https://polish.musicsources.pl/pl/lokalizacje/galeria/rekopisy/5999/1 @EN{Scan on Polish Music Sources Website} @PL{Skany w portalu Dziedzictwo Muzyki Polskiej w otwartym dostępie}
!!!IIIF:
!!!ONB-nifc: UWAGA: S – skan 14-15 , A – 32-34, T – 51-53 , B – 70-71. Części Mszy: Rorate, Kyrie, Gloria, Graduale, Sanctus, Benedictus, Agnus, Dona.
!!!AIN: 1 alto 1 bass 1 soprn 1 tenor
!!!key: C
**kern	**text	**kern	**text	**kern	**text	**kern	**text
*part4	*part4	*part3	*part3	*part2	*part2	*part1	*part1
*staff4	*staff4	*staff3	*staff3	*staff2	*staff2	*staff1	*staff1
*I"Basso.	*	*I"Tenore.	*	*I"Alto.	*	*I"Soprano.	*
*I'B	*	*I'T	*	*I'A	*	*I'S	*
*ICvox	*	*ICvox	*	*ICvox	*	*ICvox	*
*Ibass	*	*Itenor	*	*Ialto	*	*Isoprn	*
*clefF4	*	*clefC4	*	*clefC3	*	*clefC1	*
*k[]	*	*k[]	*	*k[]	*	*k[]	*
*C:	*	*C:	*	*C:	*	*C:	*
*M3/2	*	*M3/2	*	*M3/2	*	*M3/2	*
=1	=1	=1	=1	=1	=1	=1	=1
*	*	*	*	*	*	*all\right:global	*
*	*	*	*	*	*	*2\right	*
!LO:TX:a:t=3.	!	!LO:TX:a:t=2	!	!LO:TX:a:t=1.	!	!LO:TX:t=P:problem:2\right:global	!
0.r	.	0.r	.	1.r	.	2g\	Ro-
.	.	.	.	.	.	2g\	-ra-
.	.	.	.	.	.	2g\	-te
=2-	=2	=2-	=2	=2	=2	=2	=2
*	*	*	*	*2\right	*	*	*
.	.	.	.	2c\	Ro-	2a\	ce-
.	.	.	.	2c\	-ra-	[1cc	.
.	.	.	.	2c\	-te	.	.
=3-	=3	=3	=3	=3	=3	=3	=3
1.r	.	2G/	Ro-	2e\	ce-	2cc\]	.
.	.	2G/	-ra-	1g	-li,	1b	-li,
.	.	2G/	-te	.	.	.	.
=4	=4	=4	=4	=4	=4	=4	=4
*	*	*2\right	*	*	*	*	*
!	!	!LO:TX:t=P:problem:2\right:global	!	!	!	!	!
2C/	Ro-	2A\	ce-	2e\	Ro-	2cc\	Ro-
2C/	-ra-	1c	.	2e\	-ra-	2cc\	-ra-
2C/	-te	.	.	2e\	-te	2cc\	-te
=5	=5	=5	=5	=5	=5	=5	=5
*2\right	*	*	*	*	*	*	*
!LO:TX:t=P:problem:2\right:global	!	!	!	!	!	!	!
2E\	ce-	2G/	.	2e\	ce-	2cc\	ce-
2G\	-li	2G/	-li	2d\	-li	2cc\	-li
2G\	Ro-	2G/	Ro-	2d\	ro-	2b\	ro-
!	!	!	!	!LO:LB:g=original	!	!	!
=6	=6	=6	=6	=6	=6	=6	=6
2C/	-ra-	2G/	-ra-	2e\	-ra-	2cc\	-ra-
2F\	-te,	2A\	-te,	2f\	-te,	2cc\	-te,
2F\	ce-	2A\	ce-	2f\	ce-	2cc\	ce-
!	!	!LO:LB:g=original	!	!	!	!LO:LB:g=original	!
=7	=7	=7	=7	=7	=7	=7	=7
2E\	-li	2c\	-li	2g\	-li	2cc\	-li,
2.D\	de-	2.d\	de-	2.fn\	de-	2cc\	de-
.	.	.	.	.	.	2b\	-su-
4D\	-su-	4d\	-su-	4f\	-su-	.	.
!LO:LB:g=original	!	!	!	!	!	!	!
=8	=8	=8	=8	=8	=8	=8	=8
4C/	-per	4e\	-per	4e\	-per	2cc\	-per,
4C/	Ro-	4e\	et	4e\	Ro-	.	.
2C/	-ra-	2e\	nu-	2g\	-ra-	1cc	Ro-
2c\	-te	2e\	-bes	2g\	-te	.	.
=9	=9	=9	=9	=9	=9	=9	=9
1B-X	ce-	4e\	plu-	1g	ce-	(4cc\	-ra-
.	.	4f\	.	.	.	4dd\)	.
.	.	4e\	.	.	.	(4cc\	-te
.	.	4f\	.	.	.	4dd\)	.
2B-\	-li	4e\	.	2g\	-li	(4cc\	ce-
.	.	4f\	-ant,	.	.	4dd\)	.
=10	=10	=10	=10	=10	=10	=10	=10
2A\	de-	2A\	de-	1fn	de-	2cc\	-li
2.G\	.	2d\	.	.	.	2.b-X\	de-
.	.	2B-X\	-su-	2e\	-su-	.	.
4G\	-su-	.	.	.	.	4b-\	-su-
=11	=11	=11	=11	=11	=11	=11	=11
4F\	-per,	4c\	-per	4f\	-per,	4a\	-per,
4F\	et	4c\	et	4f\	et	4a\	et
2F\	nu-	2c\	nu-	2f\	nu-	2a\	nu-
2F\	-bes	2c\	-bes	2f\	-bes	2a\	-bes
=12	=12	=12	=12	=12	=12	=12	=12
2E\	plu-	2c\	plu-	1g	plu-	2cc\	plu-
2D\	.	2d\	.	.	.	2bn\	.
2C/	-ant	2e\	-ant	2g\	-ant	2cc\	.
!	!	!LO:LB:g=original	!	!LO:LB:g=original	!	!	!
=13	=13	=13	=13	=13	=13	=13	=13
2F\	ju-	1A	ju-	1.fn	ju-	2cc\	.
1D	.	.	.	.	.	2cc\	-ant,
.	.	2F/	.	.	.	2bn\	ju-
!	!	!	!	!	!	!LO:LB:g=original	!
=14	=14	=14	=14	=14	=14	=14	=14
2C/	-stum,	4G/	-stum	4e\	-stum	4cc\	-stum,
.	.	4e\	a-	4e\	a-	4cc\	a-
2r	.	2e\	-pe-	2c\	-pe-	2a\	-pe-
2r	.	2e\	-ri-	2e\	-ri-	2cc\	-ri-
!LO:LB:g=original	!	!	!	!	!	!	!
=15	=15	=15	=15	=15	=15	=15	=15
!LO:TX:a:t=1.	!	!	!	!	!	!	!
1.r	.	2.f\	-a-	(1c	-a-	1a	-a-
.	.	4e\	.	.	.	.	.
.	.	2d\	.	2f\)	.	2b\	.
=16	=16	=16	=16	=16	=16	=16	=16
4r	.	4c\	-tur,	4e\	-tur,	4cc\	-tur
4C/	a-	4c\	a-	4e\	a-	8cc\L	a-
.	.	.	.	.	.	8dd\J	.
2c\	-pe-	2c\	-pe-	2g\	-pe-	2ee\	-pe-
2Bn\	-ri-	2G/	-ri-	2g\	-ri-	2dd\	-ri-
=17	=17	=17	=17	=17	=17	=17	=17
2.c\	-a-	1G	-a-	1e	-a-	2.ee\	-a-
4B\	.	.	.	.	.	4dd\	.
2A\	-tur,	2A\	-tur	2f#X\	-tur,	2cc\	.
=18	=18	=18	=18	=18	=18	=18	=18
2G\	ter-	2d\	ter-	2g\	ter-	2b\	.
4G\	-ra	4d\	-ra,	4g\	-ra,	4b\	-tur,
4G\	a-	4d\	a-	4g\	a-	4b\	a-
4E\	-pe-	4e\	-pe-	4g\	-pe-	4cc\	-pe-
4E\	-ri-	4e\	-ri-	4g\	-ri-	4cc\	-ri-
=19	=19	=19	=19	=19	=19	=19	=19
2.F\	-a-	1c	-a-	1fn	-a-	1a	-a-
4E\	.	.	.	.	.	.	.
2D\	-tur	2d\	-tur	2f\	-tur	2b\	-tur
!	!	!LO:LB:g=original	!	!LO:LB:g=original	!	!	!
=20	=20	=20	=20	=20	=20	=20	=20
2C\	ter-	2G/	ter-	2e\	ter-	2cc\	ter-
2A\	-ra	2A\	-ra	2e\	-ra,	2cc\	-ra
!	!	!	!	!	!	!LO:LB:g=original	!
2E\	et	2G#X/	et	2e\	et	2b\	et
=21	=21	=21	=21	=21	=21	=21	=21
2A\	ger-	2A\	ger-	1e	ger-	2cc\	ger-
2E\	.	2G#X/	.	.	.	2b\	.
2F\	.	2c\	.	2c\	.	2a\	.
!LO:LB:g=original	!	!	!	!	!	!	!
=22	=22	=22	=22	=22	=22	=22	=22
2D\	.	1B	.	2f\	.	1a	.
2.E\	.	.	.	2.e\	.	.	.
.	.	2B\	-mi-	.	.	2g#X\	-mi-
4E\	-mi-	.	.	4e\	-mi-	.	.
=23	=23	=23	=23	=23	=23	=23	=23
2AA/	-net,	2c#X\	-net,	2e\	-net,	2a\	-net,
2c\	et	1Gn	et	2e\	et	2cc\	et
2G\	.	.	.	2d\	.	2bn\	.
=24	=24	=24	=24	=24	=24	=24	=24
2C/	ger-	4G/	ger-	2e\	ger-	2cc\	ger-
.	.	4A/	.	.	.	.	.
2G\	.	4G/	.	2d\	.	2b\	.
.	.	4A/	.	.	.	.	.
2c\	.	2G/	.	2e\	.	2cc\	.
=25	=25	=25	=25	=25	=25	=25	=25
2A\	.	2A\	.	2f\	.	2cc\	.
2B-X\	.	2.B-X\	.	2d\	-mi-	2.b-X\	.
2G\	-mi-	.	.	2e\	-net	.	.
.	.	4B-\	-mi-	.	.	4b-\	-mi-
=26	=26	=26	=26	=26	=26	=26	=26
1.F	-net,	1.c	-net,	1.f	Sal-	1.a	-net,
!	!	!LO:LB:g=original	!	!	!	!	!
=27	=27	=27	=27	=27	=27	=27	=27
!LO:TX:a:t=5.	!	!	!	!	!	!	!
00.r	.	2f\	Sal-	2f\	.	2a\	Sal-
.	.	2e\	.	2g\	.	2cc\	.
.	.	2e-X\	-va-	2g\	-va-	2cc\	-va-
!	!	!	!	!LO:LB:g=original	!	!	!
=28-	=28	=28	=28	=28	=28	=28	=28
.	.	2d\	-to-	1.f	-to-	2cc\	-to-
.	.	1d-X	.	.	.	1b-X	.
!	!	!	!	!	!	!LO:LB:g=original	!
=29-	=29	=29	=29	=29	=29	=29	=29
.	.	2.c\	.	2.e\	.	2.b-X\	.
.	.	4c\	-rem	4e\	-rem	4b-\	-rem
.	.	2f\	Sal-	2f\	Sal-	2a\	Sal-
=30-	=30	=30	=30	=30	=30	=30	=30
.	.	2B-X\	-va-	2f\	-va-	2g\	-va-
.	.	1c	-to-	2f\	-to-	1g	-to-
.	.	.	.	2e\	.	.	.
=31	=31	=31	=31	=31	=31	=31	=31
1.r	.	1.F	-rem,	1.f	-rem,	1.a	-rem,
=32	=32	=32	=32	=32	=32	=32	=32
2c\	Sal-	2c\	Sal-	2e\	Sal-	2ee\	Sal-
2B\	.	2d\	.	2g\	.	2dd\	.
2B-X\	-va-	2B-X\	-va-	2g\	-va-	2dd\	-va-
=33	=33	=33	=33	=33	=33	=33	=33
2A\	-to-	2c\	-to-	2g\	-to-	1.cc	-to-
1A-X	.	1f	.	1fn	.	.	.
!LO:LB:g=original	!	!	!	!	!	!	!
=34	=34	=34	=34	=34	=34	=34	=34
2.G\	.	1G	-rem,	2.f\	.	2.bn\	.
4G\	-rem	.	.	4f\	-rem	4b\	-rem,
2c\	Sal-	2G/	Sal-	2e\	sal-	2cc\	Sal-
!	!	!LO:LB:g=original	!	!	!	!	!
=35	=35	=35	=35	=35	=35	=35	=35
2F\	-va-	2A\	-va-	2d\	-va-	2cc\	-va-
2G\	-to-	1G	-to-	1d	-to-	2cc\	-to-
2GG/	.	.	.	.	.	2bn\	.
!	!	!	!	!LO:PB:g=original	!	!	!
=36	=36	=36	=36	=36	=36	=36	=36
4C/	-rem	4G/	-rem,	4e\	-rem,	4cc\	-rem
4C/	et	4G/	et	4e\	et	4cc\	et
4C/	ger-	4G/	ger-	4e\	ger-	4cc\	ger-
4C/	-mi-	4G/	-mi-	4e\	-mi-	4cc\	-mi-
2C/	-net,	2G/	-net	2e\	-net	2cc\	-net
!	!	!	!	!	!	!LO:LB:g=original	!
=37	=37	=37	=37	=37	=37	=37	=37
2F\	ger-	2A/	ger-	2f\	ger-	2cc\	ger-
4F\	-mi-	4A/	-mi-	4f\	-mi-	4cc\	-mi-
4F\	-net	4A/	-net	4f\	-net	4cc\	-net
4C/	Sal-	4G/	Sal-	4e\	Sal-	4cc\	Sal-
4C/	-va-	4G/	-va-	4e\	-va-	4cc\	-va-
=38	=38	=38	=38	=38	=38	=38	=38
1.F	-to-	1.A	-to-	1.f	-to-	1.cc	-to-
=39	=39	=39	=39	=39	=39	=39	=39
0C	-rem.	0G	-rem.	0e	-rem.	0cc	-rem.
==	==	==	==	==	==	==	==
*-	*-	*-	*-	*-	*-	*-	*-
!!!system-decoration: [(s1,s2,s3,s4)]
!!!ENC: Filip Voros
!!!END: 2023-11-10
!!!ENC: Leszek Kubiak
!!!END: 2024-01-17
